X:1
T:Belles of South Boston -- Hornpipe
R:hornpipe
B:Cole's 1000 Fiddle Tunes
M:2/4
L:1/16
K:G
(uBc)|vdBcA Ggfe|(ed).d.d .d2vcB|Ac"4"ed cBAG|F"4"AGE .D2(Bc)|
dBcA Ggfe|"4"eddd dgfe|dBcA BGAF|G2B2G2:|
|:(ucB)|(vBA)AA ADFA|("4"ed)dd dgdB|(BA)AA ADFA|("4"ed)dd d2(ba)|
gbfa egdf|c"4"eBd AcGB|Acfe dcBA|G2B2G2:|
